X:21072 
T:HUISH THE CAT 
B:DMI.0382
Z:Nordberg/Black
R:jig
%Q:1/4=160
M:6/8
L:1/8
K:Am
E/F/|GAG c2e|d2A c2e|GAG c2d|ecA A2c|
GAG c2e|d2A c2e|gfe f2d|ecA A2:|
d|gfe f2d|edc f2d|gfe f2d|ecA A2G|
gfe f2d|edc f2d|G>AG f2d|ecA A2:|

%%%

